symbolic/32x32/apps/agordejo.svg

<svg width="32" height="32" version="1.1" xmlns="http://www.w3.org/2000/svg">
 <path d="m10.4 3c-0.6702507 2.261e-4 -1.2463339 0.4754232-1.3740237 1.1333987l-5.0004801 25.2c-0.2246722 1.156823 0.9930564 2.056812 2.0330077 1.502538l9.9414961-4.835937 9.941496 4.835937c1.039951 0.554274 2.25768-0.345715 2.033008-1.502538l-5.00048-25.2c-0.12769-0.6579755-0.703773-1.1331726-1.374024-1.1333987z" style="opacity:.2"/>
 <path d="m10.4 2c-0.6702507 2.261e-4 -1.2463339 0.4754232-1.3740237 1.1333987l-5.0004801 25.2c-0.2246722 1.156823 0.9930564 2.056812 2.0330077 1.502538l9.9414961-4.835937 9.941496 4.835937c1.039951 0.554274 2.25768-0.345715 2.033008-1.502538l-5.00048-25.2c-0.12769-0.6579755-0.703773-1.1331726-1.374024-1.1333987z" style="fill:#4f4f4f"/>
 <path d="m16 22 4-6.5-4-6.5-4 6.5z" style="opacity:.2"/>
 <path d="m16 21 4-6.5-4-6.5-4 6.5z" style="fill:#ffffff"/>
 <path d="m10.400391 2c-0.6702511 2.261e-4 -1.2473106 0.474837-1.3750004 1.1328125l-5 25.201172c-0.0501669 0.258307-0.0189861 0.499385 0.0566406 0.71875l4.9433594-24.919922c0.1276898-0.6579755 0.7047493-1.1325864 1.3750004-1.1328125h11.199218c0.670251 2.261e-4 1.24731 0.474837 1.375 1.1328125l4.94336 24.919922c0.075627-0.219365 0.106807-0.460443 0.05664-0.71875l-5-25.201172c-0.12769-0.6579755-0.704749-1.1325864-1.375-1.1328125h-11.199218z" style="fill:#ffffff;opacity:.1"/>
</svg>

<svg width="32" height="32" xmlns="http://www.w3.org/2000/svg"><path d="M10.4 3a1.4 1.4 0 0 0-1.374 1.133l-5 25.2c-.225 1.157.993 2.057 2.033 1.503L16 26l9.941 4.836c1.04.554 2.258-.346 2.034-1.503l-5.001-25.2A1.4 1.4 0 0 0 21.6 3z" style="opacity:.2"/><path d="M10.4 2a1.4 1.4 0 0 0-1.374 1.133l-5 25.2c-.225 1.157.993 2.057 2.033 1.503L16 25l9.941 4.836c1.04.554 2.258-.346 2.034-1.503l-5.001-25.2A1.4 1.4 0 0 0 21.6 2z" style="fill:#4f4f4f"/><path d="m16 22 4-6.5L16 9l-4 6.5z" style="opacity:.2"/><path d="m16 21 4-6.5L16 8l-4 6.5z" style="fill:#fff"/><path d="M10.4 2a1.4 1.4 0 0 0-1.375 1.133l-5 25.201c-.05.258-.019.5.057.719l4.943-24.92A1.4 1.4 0 0 1 10.4 3h11.2a1.4 1.4 0 0 1 1.375 1.133l4.943 24.92c.076-.22.107-.46.057-.719l-5-25.201A1.4 1.4 0 0 0 21.6 2H10.4z" style="fill:#fff;opacity:.1"/></svg>
